X: 1035
T: The Boys of the West
R:double jig
N:"collected by Fielding"
B:O'Neill's 1035
Z:Transcribed by henrik.norbeck@mailbox.swipnet.se
M:6/8
L:1/8
K:G
g|fed edB|dBG GAB|cBc edc|BAA A2 g|
fed edB|dBG GAB|cBc edc|BGG G2:|
z|def gfg|eaa aga|bag bag|fdd d2 g|
ecc efg|dBG GAB|ABA gfe|BGG G2:|


